X:156
T:Juniper Jig
R:jig 32
C:Charlie Sherrit
S:Chris Duncan Workshop-  Nov 97
Z:Tim Barker, Nov 9
M:6/8
L:1/8
Q:3/8=110
K:G
|:gfg dBG|EGc edc|Bdd GBB|ABc def|
gfg dBG|EGc edc|BdB cBA|1G3 G2d:|2G3 G2=F|]
|:EGc edc|edc gfe|dBG DGB|DGB BAG|1
FAA DAA|FAA D2A|GFG AGA|B3 GF=F:|2
FAA DAA|FAA D2e|fed cBA|G3 G2z|]

